Yaru++/actions/16/selection-checked.svg

<svg height="16" width="16" xmlns="http://www.w3.org/2000/svg">
  <path d="m8 .50000007c-4.1382429 0-7.50000006 3.36175713-7.50000006 7.49999993 0 4.138243 3.36175716 7.5 7.50000006 7.5 4.138243 0 7.500007-3.361757 7.5-7.5 0-4.1382428-3.361757-7.49999993-7.5-7.49999993z" fill="#5b9c2c"/>
  <path d="m8 .50000008c-4.1382429 0-7.50000006 3.36175712-7.50000006 7.50000002s3.36175716 7.4999999 7.50000006 7.4999999c4.138243 0 7.500007-3.361757 7.5-7.4999999 0-4.1382429-3.361757-7.50000002-7.5-7.50000002z" fill="none" opacity=".5"/>
  <path d="m10.847543 3.8202285 1.438157 1.29435-4.8322214 6.3854215-3.7392072-3.2214715 1.2368142-1.6395072 2.1860001 1.8983715z" fill="#fff"/>
</svg>

<svg xmlns="http://www.w3.org/2000/svg" width="16" height="16" version="1.2">
 <path style="fill:#5b9c2c" d="M 8,0.50000007 C 3.8617571,0.50000007 0.49999994,3.8617572 0.49999994,8 c 0,4.138243 3.36175716,7.5 7.50000006,7.5 4.138243,0 7.500007,-3.361757 7.5,-7.5 C 15.5,3.8617572 12.138243,0.50000007 8,0.50000007 z"/>
 <path style="opacity:0.5;fill:none" d="m 8,0.50000008 c -4.1382429,0 -7.50000006,3.36175712 -7.50000006,7.50000002 C 0.49999994,12.138243 3.8617571,15.5 8,15.5 c 4.138243,0 7.500007,-3.361757 7.5,-7.4999999 C 15.5,3.8617572 12.138243,0.50000008 8,0.50000008 z"/>
 <path style="fill:#ffffff" d="M 10.847543,3.8202285 12.2857,5.1145785 7.4534786,11.5 3.7142714,8.2785285 4.9510856,6.6390213 7.1370857,8.5373928 10.847543,3.8202285 z"/>
</svg>
